icons/database-24.svg

<svg width="24" height="24" viewBox="0 0 24 24" xmlns="http://www.w3.org/2000/svg">
  <path fill-rule="evenodd" clip-rule="evenodd" d="M12 1.25C9.51277 1.25 7.22646 1.65189 5.53427 2.32877C4.69026 2.66637 3.95691 3.08713 3.42229 3.59273C2.88609 4.09981 2.5 4.74408 2.5 5.5L2.50004 5.51365L2.5 18.4867L2.52589 18.5H2.5C2.5 19.2559 2.88609 19.9002 3.42229 20.4073C3.95691 20.9129 4.69026 21.3336 5.53427 21.6712C7.22646 22.3481 9.51277 22.75 12 22.75C14.4872 22.75 16.7735 22.3481 18.4657 21.6712C19.3097 21.3336 20.0431 20.9129 20.5777 20.4073C21.1139 19.9002 21.5 19.2559 21.5 18.5H21.4741L21.5 18.4867V5.5C21.5 4.74408 21.1139 4.09981 20.5777 3.59273C20.0431 3.08713 19.3097 2.66637 18.4657 2.32877C16.7735 1.65189 14.4872 1.25 12 1.25ZM4 5.5C4 5.28943 4.1036 5.01294 4.45295 4.68256C4.80388 4.35068 5.35193 4.01725 6.09136 3.72148C7.56605 3.13161 9.65474 2.75 12 2.75C14.3453 2.75 16.434 3.13161 17.9086 3.72148C18.6481 4.01725 19.1961 4.35068 19.5471 4.68256C19.8964 5.01294 20 5.28943 20 5.5C20 5.71057 19.8964 5.98706 19.5471 6.31744C19.1961 6.64932 18.6481 6.98275 17.9086 7.27852C16.434 7.86839 14.3453 8.25 12 8.25C9.65474 8.25 7.56605 7.86839 6.09136 7.27852C5.35193 6.98275 4.80388 6.64932 4.45295 6.31744C4.1036 5.98706 4 5.71057 4 5.5ZM20 12V7.871C19.5575 8.17618 19.0369 8.44275 18.4657 8.67123C16.7735 9.34811 14.4872 9.75 12 9.75C9.51277 9.75 7.22646 9.34811 5.53427 8.67123C4.96306 8.44275 4.44254 8.17618 4 7.871V12C4 12.2106 4.1036 12.4871 4.45295 12.8174C4.80388 13.1493 5.35193 13.4827 6.09136 13.7785C7.56605 14.3684 9.65474 14.75 12 14.75C14.3453 14.75 16.434 14.3684 17.9086 13.7785C18.6481 13.4827 19.1961 13.1493 19.5471 12.8174C19.8964 12.4871 20 12.2106 20 12ZM4 14.371C4.44254 14.6762 4.96306 14.9427 5.53427 15.1712C7.22646 15.8481 9.51277 16.25 12 16.25C14.4872 16.25 16.7735 15.8481 18.4657 15.1712C19.0369 14.9427 19.5575 14.6762 20 14.371V18.4867L20.0129 18.5H20C20 18.7106 19.8964 18.9871 19.5471 19.3174C19.1961 19.6493 18.6481 19.9827 17.9086 20.2785C16.434 20.8684 14.3453 21.25 12 21.25C9.65474 21.25 7.56605 20.8684 6.09136 20.2785C5.35193 19.9827 4.80388 19.6493 4.45295 19.3174C4.1036 18.9871 4 18.7106 4 18.5H3.98705L4 18.4867V14.371Z"/>
</svg>

<svg xmlns="http://www.w3.org/2000/svg" width="24" height="24" viewBox="0 0 24 24"><path fill-rule="evenodd" d="M12 1.25c-2.487 0-4.774.402-6.466 1.079-.844.337-1.577.758-2.112 1.264C2.886 4.1 2.5 4.744 2.5 5.5v12.987l.026.013H2.5c0 .756.386 1.4.922 1.907.535.506 1.268.927 2.112 1.264 1.692.677 3.979 1.079 6.466 1.079s4.773-.402 6.466-1.079c.844-.337 1.577-.758 2.112-1.264.536-.507.922-1.151.922-1.907h-.026l.026-.013V5.5c0-.756-.386-1.4-.922-1.907-.535-.506-1.268-.927-2.112-1.264C16.773 1.652 14.487 1.25 12 1.25zM4 5.5c0-.21.104-.487.453-.817.35-.332.899-.666 1.638-.962C7.566 3.131 9.655 2.75 12 2.75c2.345 0 4.434.382 5.909.971.74.296 1.287.63 1.638.962.35.33.453.606.453.817 0 .21-.104.487-.453.817-.35.332-.899.666-1.638.962-1.475.59-3.564.971-5.909.971-2.345 0-4.434-.382-5.909-.971-.74-.296-1.287-.63-1.638-.962C4.103 5.987 4 5.711 4 5.5zM20 12V7.871a7.842 7.842 0 01-1.534.8C16.773 9.348 14.487 9.75 12 9.75s-4.774-.402-6.466-1.079A7.843 7.843 0 014 7.871V12c0 .21.104.487.453.817.35.332.899.666 1.638.961 1.475.59 3.564.972 5.909.972 2.345 0 4.434-.382 5.909-.972.74-.295 1.287-.629 1.638-.96.35-.33.453-.607.453-.818zM4 14.371c.443.305.963.572 1.534.8 1.692.677 3.979 1.079 6.466 1.079s4.773-.402 6.466-1.079a7.842 7.842 0 001.534-.8v4.116l.013.013H20c0 .21-.104.487-.453.817-.35.332-.899.666-1.638.962-1.475.59-3.564.971-5.909.971-2.345 0-4.434-.382-5.909-.971-.74-.296-1.287-.63-1.638-.962-.35-.33-.453-.606-.453-.817h-.013L4 18.487V14.37z"/></svg>
